X:2996
L:1/16
M:2/4
K:G
 G,B,DG E2C2 | DB,DB, A,2A,2 | G,A,G,B, D2G2 |1 AcBA G2G2 :|2 AcBA G2 |: (3DEF | G2B2 cBAc | 
 BAGB A2DF | G2B2 cBAc | dcBA G2 :|

